symbols/web/tips_and_updates/materialsymbolsoutlined/tips_and_updates_wght500grad200_24px.svg

<svg xmlns="http://www.w3.org/2000/svg" height="24" width="24"><path d="m22.1 10.55-.775-1.675-1.7-.775 1.7-.775.775-1.7.775 1.7 1.675.775-1.675.775Zm-3-4.05-1.175-2.525-2.525-1.15 2.525-1.175L19.1-.875l1.15 2.525 2.525 1.175-2.525 1.15ZM8.825 22.975q-.975 0-1.612-.663-.638-.662-.588-1.662h4.4q.025 1-.612 1.662-.638.663-1.588.663Zm-4.4-3V17.35h8.8v2.625Zm.375-3.3Q2.825 15.55 1.65 13.6.475 11.65.475 9.325q0-3.475 2.438-5.9Q5.35 1 8.825 1t5.9 2.425q2.425 2.425 2.425 5.9 0 2.3-1.175 4.262-1.175 1.963-3.125 3.088Zm.85-2.825h6.325q1.1-.8 1.725-1.975t.625-2.525q0-2.325-1.6-3.925-1.6-1.6-3.925-1.6-2.3 0-3.9 1.6T3.3 9.35q0 1.35.625 2.525.625 1.175 1.725 1.975Zm3.175 0Z"/></svg>

<svg xmlns="http://www.w3.org/2000/svg" height="24" width="24"><path d="M22.1 10.55 21.325 8.875 19.625 8.1 21.325 7.325 22.1 5.625 22.875 7.325 24.55 8.1 22.875 8.875ZM19.1 6.5 17.925 3.975 15.4 2.825 17.925 1.65 19.1 -0.875 20.25 1.65 22.775 2.825 20.25 3.975ZM8.825 22.975Q7.85 22.975 7.213 22.312Q6.575 21.65 6.625 20.65H11.025Q11.05 21.65 10.413 22.312Q9.775 22.975 8.825 22.975ZM4.425 19.975V17.35H13.225V19.975ZM4.8 16.675Q2.825 15.55 1.65 13.6Q0.475 11.65 0.475 9.325Q0.475 5.85 2.913 3.425Q5.35 1 8.825 1Q12.3 1 14.725 3.425Q17.15 5.85 17.15 9.325Q17.15 11.625 15.975 13.587Q14.8 15.55 12.85 16.675ZM5.65 13.85H11.975Q13.075 13.05 13.7 11.875Q14.325 10.7 14.325 9.35Q14.325 7.025 12.725 5.425Q11.125 3.825 8.8 3.825Q6.5 3.825 4.9 5.425Q3.3 7.025 3.3 9.35Q3.3 10.7 3.925 11.875Q4.55 13.05 5.65 13.85ZM8.825 13.85Q8.825 13.85 8.825 13.85Q8.825 13.85 8.825 13.85Q8.825 13.85 8.825 13.85Q8.825 13.85 8.825 13.85Q8.825 13.85 8.825 13.85Q8.825 13.85 8.825 13.85Q8.825 13.85 8.825 13.85Q8.825 13.85 8.825 13.85Z"/></svg>
